X: 41299
T: Tune For Bartley
R: hornpipe
M: 4/4
K: Gmixolydian
AB2AB3B|ABBAB3d|e2e2^f3e|dBAGA3A|
GABGA2(D2|D)BcdB3z|BAGED2BA|GEDGG4:|
c3cc3e|dcBA B3B|GABc dedB|d2A2A3z|
c3cc3e|dcBA B3z|BAGED2BA|GEDGG4:|
AB2AB3B|ABBAB3d|e2e2^f3e|dBAGA3A|
GABGA2(D2|D)BcdB3z|BAGED2BA|GEDGG4:|
c3cc3e|dcBA B3B|GABc dedB|d2A2A3z|
c3cc3e|dcBA B3z|BAGED2BA|GEDGG4:|
g2g2f3g|agfg d3g|g2egb2ag|eaag ac'ba|
g2egf3g|agfg d3z|dc (3BAGA2BA|GEDGG4:|

